actions/22x22-light/edit-table-delete-column.svg

<svg xmlns="http://www.w3.org/2000/svg" viewBox="0 0 22 22">
 <defs id="defs3051">
   <style type="text/css" id="current-color-scheme">
     .ColorScheme-Text {
       color:#4d4d4d;
     }
     </style>
 </defs>
   <path
      style="fill:currentColor;fill-opacity:1;stroke:none"
      d="m3 3v1 14 1h15 1v-16h-1zm1 1h2v3 1h-1.0996094-.9003906zm3 0h1 1 1 2 1 1 1v3 1h-1v1h1v4h-1v1h1v4h-1-1-1-2-1-1-1v-4h1v-1h-1v-4h1v-1h-1v-1zm9 0h2v4h-1-1v-1zm-12 5h2v4h-2zm12 0h1 1v4h-1-1zm-12 5h2v4h-2zm12 0h1 1v4h-2v-3z"
      class="ColorScheme-Text" />
   
 <defs id="defs3051">
   <style type="text/css" id="current-color-scheme">
     .ColorScheme-Text {
       color:#da4453;
     }
     </style>
 </defs>
   <path
      style="fill:currentColor;fill-opacity:1;stroke:none"
      d="m14 18v-5.29297-4-4-.70703h-.70703-.29297v.29297l-4 4v-4.29297h-1v14h1v-.29297l4-4v4.29297zm-5-1.70703v-2.58594l4-4v2.58594zm0-4v-2.58594l4-4v2.58594z"
      class="ColorScheme-Text" />
   </svg>

<svg xmlns="http://www.w3.org/2000/svg" viewBox="0 0 22 22">
  <defs id="defs3051">
    <style type="text/css" id="current-color-scheme">
      .ColorScheme-Text {
        color:#4d4d4d;
      }
      </style>
  </defs>
 <path 
    style="fill:currentColor;fill-opacity:1;stroke:none" 
    d="M 3 3 L 3 4 L 3 18 L 3 19 L 18 19 L 19 19 L 19 3 L 18 3 L 3 3 z M 4 4 L 6 4 L 6 7 L 6 8 L 4.9003906 8 L 4 8 L 4 4 z M 7 4 L 8 4 L 9 4 L 10 4 L 12 4 L 13 4 L 14 4 L 15 4 L 15 7 L 15 8 L 14 8 L 14 9 L 15 9 L 15 13 L 14 13 L 14 14 L 15 14 L 15 18 L 14 18 L 13 18 L 12 18 L 10 18 L 9 18 L 8 18 L 7 18 L 7 14 L 8 14 L 8 13 L 7 13 L 7 9 L 8 9 L 8 8 L 7 8 L 7 7 L 7 4 z M 16 4 L 18 4 L 18 8 L 17 8 L 16 8 L 16 7 L 16 4 z M 4 9 L 6 9 L 6 13 L 4 13 L 4 9 z M 16 9 L 17 9 L 18 9 L 18 13 L 17 13 L 16 13 L 16 9 z M 4 14 L 6 14 L 6 18 L 4 18 L 4 14 z M 16 14 L 17 14 L 18 14 L 18 18 L 16 18 L 16 15 L 16 14 z "
    class="ColorScheme-Text"
    />  
  <path
     style="fill:#da4453"
     d="m 14,18 0,-5.29297 0,-4 0,-4 L 14,4 13.29297,4 13,4 l 0,0.29297 -4,4 L 9,4 8,4 l 0,14 1,0 0,-0.29297 4,-4 0,4.29297 1,0 m -5,-1.70703 0,-2.58594 4,-4 0,2.58594 -4,4 m 0,-4 0,-2.58594 4,-4 0,2.58594 -4,4" />
</svg>
